X:1
T:Count Your Blessings
T:Edwin Othello Excell
T:Count Your Blessings
T:Public Domain
T:Public Domain
T:Public Domain
C:Edwin Othello Excell
Z:Public Domain
%%score ( 1 2 ) 3
L:1/8
M:2/4
K:Eb
V:1 treble 
V:2 treble 
V:3 bass 
V:1
 [EG][EG] [EG][FA] | [GB][GB] [GB][EG] | [FA]2 [EG]2 | [FA]4 | [DF][EG] [FA][GB] | %5
w: 1.~When up- on life’s|bil- lows you are|tem- pest|tossed,|When you are dis-|
w: 2.~Are you ev- er|bur- dened with a|load of|care?|Does the cross seem|
w: 3.~When you look at|o- thers with their|lands and|gold,|Think that Christ has|
w: 4.~So, a- mid the|con- flict whe- ther|great or|small,|Do not be dis-|
 [Bd][Ac] [GB][FA] | [EG]2 [FA]2 | [GB]4 | [EG][EG] [EG][FA] | [GB][GB] [GB][EG] | [FA]2 [EG]2 | %11
w: cour- aged, think- ing|all is|lost,|Count your ma- ny|bless- ings, name them|one by|
w: heav- y you are|called to|bear?|Count your ma- ny|bless- ings, ev- ery|doubt will|
w: prom- ised you His|wealth un-|told;|Count your ma- ny|bless- ings. Wealth can|nev- er|
w: heart- ened, God is|o- ver|all;|Count your ma- ny|bless- ings, an- gels|will at-|
 [FA]4 | [DF][EG] [FA][GB] | [Bd][Ac] [GB][FA] | [EG]2 [DF]2 | E4 ||"^Refrain" [GB]3 [GB] | %17
w: one,|And it will sur-|prise you what the|Lord hath|done.||
w: fly,|And you will keep|sing- ing as the|days go|by.|Count your|
w: buy|Your re- ward in|Heav- en, nor your|home on|high.||
w: tend,|Help and com- fort|give you to your|jour- ney’s|end.||
 [Ge][GB] [GB][EG] | (FE) (DC) | [B,A]4 | [FA]3 [FA] | [Ad][Ad] [Ac][Ac] | [EG]2 [FA]2 | [GB]4 | %24
w: |||||||
w: bless- ings, name them|one * by *|your|bless- ings,|see what God hath|done! Count|your|
w: |||||||
w: |||||||
 [Ge]3 [Ge] | [Bd][Ac] | [Ad][Ad] [Ac]2 [Ac]2 | [AB]4 | [Ge][Ge] [Ad][Ge] | [Bd][Ac] [=EB][FA] | %30
w: ||||||
w: bless- ings,|name them|one by one, And|it|will sur- prise you|what the Lord hath|
w: ||||||
w: ||||||
 [EG]2 [DF]2 | E4 |] %32
w: ||
w: done. *||
w: ||
w: ||
V:2
 x4 | x4 | x4 | x4 | x4 | x4 | x4 | x4 | x4 | x4 | x4 | x4 | x4 | x4 | x4 | x4 || x4 | x4 | A2 A2 | %19
w: |||||||||||||||||||
w: ||||||||||||||||||one, Count|
 x4 | x4 | x4 | x4 | x4 | x4 | x2 | x6 | x4 | x4 | x4 | x4 | E4 |] %32
w: |||||||||||||
w: |||||||||||||
V:3
 [E,B,][E,B,] [E,B,][E,B,] | [E,E][E,E] [E,E][E,B,] | [B,,B,]2 [B,,B,]2 | [B,,B,]4 | %4
 [B,,B,][B,,B,] [B,,B,][B,,B,] | [B,,B,][B,,B,] [B,,B,][B,,B,] | [E,B,]2 [E,B,]2 | [E,E]4 | %8
 [E,B,][E,B,] [E,B,][E,B,] | [E,E][E,E] [E,E][E,B,] | [B,,B,]2 [B,,B,]2 | [B,,B,]4 | %12
 [B,,B,][B,,B,] [B,,B,][B,,B,] | [B,,B,][B,,B,] [B,,B,][B,,B,] | [B,,B,]2 [B,,A,]2 | [E,G,]4 || %16
 ([E,E][E,E] [G,E]<[B,E]) | [E,B,] [E,B,]3 | ([B,,B,][B,,B,]) ([B,,B,][B,,B,]) | [B,,B,]4 | %20
 ([B,,B,][B,,B,] [B,,B,]<[B,,B,]) | [B,,B,] [B,,B,]3 | (B,[B,F]) ([B,E][B,E]) | [E,E]4 | %24
 ([E,B,][E,B,] [E,B,]<[E,E]) | [A,E][A,E] | [B,F][B,F] [B,E]2 [B,E]2 | [B,D]4 | %28
 [E,E][E,B,] [F,B,][G,E] | [A,E][A,E] [G,C][F,C] | ([B,,B,][B,,B,]) ([B,,A,][B,,A,]) | [E,G,]4 |] %32

